X:1
T:Millennium, 66.66.88
T:Millennium, 66.66.88
T:Plymouth Collection, 1855
T:Public Domain Courtesy of the Cyber Hymnal™
C:Plymouth Collection, 1855
Z:Public Domain
Z:Courtesy of the Cyber Hymnal™
%%score ( 1 2 ) ( 3 4 )
L:1/8
Q:1/4=110
M:4/4
K:A
V:1 treble 
V:2 treble 
V:3 bass 
V:4 bass 
V:1
 E2 | [CA]2 [CA]2 [EA]2 ([EG][DF]) | [CE]6 E2 | [DF]2 [FA]2 [EG]2 [DB]2 | [CA]6 ([CA][EB]) | %5
 [Ec]2 [Ec]2 [Ec]2 [Ec]2 | [Ae]6 [Ac]2 | [GB]2 [FA]2 [EG]2 [^DF]2 | E6 E2 | [DB]4 ([Ec]3 [DB]) | %10
 [CA]4 E4 | [Ed]4 (e3 d) | [Ec]6 E2 | (F2 G2) [CA]2 [EB]2 | [Ec]4 ([Ee]2 [Fd]2) | [Ec]4 B4 | %16
 [CA]6 |] %17
V:2
 (ED) | x8 | x6 E2 | x8 | x8 | x8 | x8 | x8 | E6 E2 | x8 | x4 E4 | x4 E4 | x6 E2 | D4 x4 | x8 | %15
 x4 (E2 D2) | x6 |] %17
V:3
 [E,G,]2 | [A,,A,]2 [A,,A,]2 [C,A,]2 [D,A,]2 | [A,,A,]6 [A,,C]2 | [D,D]2 [B,,D]2 [E,B,]2 [E,G,]2 | %4
 [A,,A,]6 A,[E,G,] | [A,,A,]2 [A,,A,]2 [A,,A,]2 [A,,A,]2 | C6 [A,E]2 | [B,E]2 (C^D) [B,E]2 (B,A,) | %8
 [E,G,]6 [E,G,]2 | [E,G,]4 [E,G,]4 | [A,,A,]4 [A,C]4 | [G,B,]4 [E,G,]4 | A,6 [C,A,]2 | %13
 [F,A,]2 [E,G,]2 [F,C]2 [G,B,]2 | A,4 A,4 | [E,A,]4 [E,G,]4 | [A,,A,]6 |] %17
V:4
 x2 | x8 | x8 | x8 | x6 A, x | x8 | (A,,2 C,2 E,2) x2 | x2 B,2 x B,,2 x | x8 | x8 | x8 | x8 | %12
 A,6 x2 | x8 | A,4 (C,2 D,2) | x8 | x6 |] %17

